public/Homepage/svg/apple.svg

<svg width="50" height="50" viewBox="0 0 50 50" fill="none" xmlns="http://www.w3.org/2000/svg">
<g clip-path="url(#clip0_837_362)">
<path d="M25.6659 11.9569H24.5789V10.8702C24.5789 3.7641 28.3425 0.000488281 35.4486 0.000488281H36.5352V1.08758C36.5352 8.19326 32.7716 11.9569 25.6659 11.9569Z" fill="#02A738"/>
<path d="M34.3615 50.0006C32.6104 49.9994 30.886 49.5751 29.3344 48.7642C27.0468 47.5394 24.2982 47.5394 22.011 48.7642C20.459 49.5751 18.7346 49.9994 16.9836 50.0006C9.67407 50.0006 3.94009 39.9732 3.94009 27.1745C3.94009 19.3889 9.79628 13.0439 16.9836 13.0439C18.3294 13.0439 19.6661 13.2688 20.9374 13.7099L24.9729 15.1091C25.4351 15.2687 25.9374 15.2687 26.3996 15.1091L30.4211 13.7099C31.6885 13.2708 33.02 13.0459 34.3615 13.0439C38.2879 13.0439 41.9564 14.9327 44.4566 18.2207L45.4075 19.4841L43.8857 19.9188C39.9784 21.0449 37.3759 24.7316 37.6239 28.7906C37.8715 32.8496 40.9031 36.1925 44.9183 36.8345L46.1551 37.0383L45.7745 38.2341C43.5191 45.4894 39.1306 50.0006 34.3615 50.0006ZM25.6659 45.6526C27.296 45.6654 28.8994 46.071 30.3395 46.8349C31.5791 47.4893 32.9599 47.8296 34.3615 47.8264C37.9213 47.8264 41.3043 44.3617 43.3424 38.7098C38.6621 37.3966 35.4326 33.1223 35.4486 28.2612C35.4673 24.0347 37.9225 20.1982 41.7526 18.4109C39.7555 16.3729 37.1331 15.2177 34.3615 15.2177C33.2608 15.2181 32.1678 15.4016 31.1277 15.7615L27.0926 17.1606C26.1723 17.4767 25.1728 17.4767 24.2529 17.1606L20.2038 15.7615C19.1637 15.4016 18.0707 15.2177 16.97 15.2177C10.9781 15.2177 6.10073 20.5847 6.10073 27.1745C6.10073 38.3702 11.0732 47.8264 16.97 47.8264C18.3716 47.83 19.7528 47.4897 20.992 46.8349C22.4321 46.071 24.0355 45.6654 25.6659 45.6526Z" fill="white"/>
</g>
<defs>
<clipPath id="clip0_837_362">
<rect width="50" height="50" fill="white" transform="translate(0 0.000488281)"/>
</clipPath>
</defs>
</svg>

<?xml version="1.0" encoding="UTF-8"?>
<svg id="Layer_1" data-name="Layer 1" xmlns="http://www.w3.org/2000/svg" xmlns:xlink="http://www.w3.org/1999/xlink" viewBox="0 0 50 50">
  <defs>
    <style>
      .cls-1 {
        fill: #ff5823;
      }

      .cls-2 {
        fill: #fff;
      }

      .cls-3 {
        fill: none;
      }

      .cls-4 {
        clip-path: url(#clippath);
      }
    </style>
    <clipPath id="clippath">
      <rect class="cls-3" y="0" width="50" height="50"/>
    </clipPath>
  </defs>
  <g class="cls-4">
    <g>
      <path class="cls-1" d="M25.67,11.96h-1.09v-1.09C24.58,3.76,28.34,0,35.45,0h1.09v1.09c0,7.11-3.76,10.87-10.87,10.87Z"/>
      <path class="cls-2" d="M34.36,50c-1.75,0-3.48-.43-5.03-1.24-2.29-1.22-5.04-1.22-7.32,0-1.55.81-3.28,1.24-5.03,1.24-7.31,0-13.04-10.03-13.04-22.83,0-7.79,5.86-14.13,13.04-14.13,1.35,0,2.68.22,3.95.67l4.04,1.4c.46.16.96.16,1.43,0l4.02-1.4c1.27-.44,2.6-.66,3.94-.67,3.93,0,7.59,1.89,10.1,5.18l.95,1.26-1.52.43c-3.91,1.13-6.51,4.81-6.26,8.87.25,4.06,3.28,7.4,7.29,8.04l1.24.2-.38,1.2c-2.26,7.26-6.64,11.77-11.41,11.77ZM25.67,45.65c1.63.01,3.23.42,4.67,1.18,1.24.65,2.62.99,4.02.99,3.56,0,6.94-3.46,8.98-9.12-4.68-1.31-7.91-5.59-7.89-10.45.02-4.23,2.47-8.06,6.3-9.85-2-2.04-4.62-3.19-7.39-3.19-1.1,0-2.19.18-3.23.54l-4.04,1.4c-.92.32-1.92.32-2.84,0l-4.05-1.4c-1.04-.36-2.13-.54-3.23-.54-5.99,0-10.87,5.37-10.87,11.96,0,11.2,4.97,20.65,10.87,20.65,1.4,0,2.78-.34,4.02-.99,1.44-.76,3.04-1.17,4.67-1.18Z"/>
    </g>
  </g>
</svg>
